X:289
T:Miss Spence's Reel
S:Tom Anderson and Aly Bain
O:Shetland
Z:Nigel Gatherer
M:4/4
L:1/8
K:D
A | d2 AG F2 DF | E =C2 E c3 A | B2 AG F2 D2 | D d2 c d3  :|
e | fafd  fafd  | egec   egec | fafd  fafd  | egec   d3 :|]
<end>
<start>
